X:2
T:Knäppvals efter J G Rosenlund
T:(noterad för stämningen A-E-a-ciss)
R:Omstämt
O:Tving, Blekinge
L:1/4
M:3/4
K:C
|: (D | D/C/) B,/D/ (A/B/) | c2 (d/c/) | B B ((3a/g/f/) | !+!e !+!A !+!D |
       (D/C/) B,/D/ (A/B/) | c2 (d/c/) | B {c}B/A/ (B/c/) | A2 :|
|: !+![G,D] | !+![G,D] !+!e !+!A | !+![G,D] !+!e !+!A | [DB] B ((3f/e/d/) | !+!e !+!A !+!D |
   !+![G,D] !+!e !+!A | !+![G,D] !+!e !+!A | [DB] {c}B/A/ (B/c/) | A2 :|

